icons/circle/48/calibre-viewer.svg

<svg xmlns="http://www.w3.org/2000/svg" viewBox="0 0 48 48">
 <defs>
  <linearGradient id="linearGradient3764" x1="1" x2="47" gradientUnits="userSpaceOnUse" gradientTransform="matrix(0,-1,1,0,-1.5e-6,47.999998)">
   <stop style="stop-color:#084d4e;stop-opacity:1"/>
   <stop offset="1" style="stop-color:#0a6161;stop-opacity:1"/>
  </linearGradient>
 </defs>
 <g>
  <path d="m 36.31 5 c 5.859 4.062 9.688 10.831 9.688 18.5 c 0 12.426 -10.07 22.5 -22.5 22.5 c -7.669 0 -14.438 -3.828 -18.5 -9.688 c 1.037 1.822 2.306 3.499 3.781 4.969 c 4.085 3.712 9.514 5.969 15.469 5.969 c 12.703 0 23 -10.298 23 -23 c 0 -5.954 -2.256 -11.384 -5.969 -15.469 c -1.469 -1.475 -3.147 -2.744 -4.969 -3.781 z m 4.969 3.781 c 3.854 4.113 6.219 9.637 6.219 15.719 c 0 12.703 -10.297 23 -23 23 c -6.081 0 -11.606 -2.364 -15.719 -6.219 c 4.16 4.144 9.883 6.719 16.219 6.719 c 12.703 0 23 -10.298 23 -23 c 0 -6.335 -2.575 -12.06 -6.719 -16.219 z" style="opacity:0.05"/>
  <path d="m 41.28 8.781 c 3.712 4.085 5.969 9.514 5.969 15.469 c 0 12.703 -10.297 23 -23 23 c -5.954 0 -11.384 -2.256 -15.469 -5.969 c 4.113 3.854 9.637 6.219 15.719 6.219 c 12.703 0 23 -10.298 23 -23 c 0 -6.081 -2.364 -11.606 -6.219 -15.719 z" style="opacity:0.1"/>
  <path d="m 31.25 2.375 c 8.615 3.154 14.75 11.417 14.75 21.13 c 0 12.426 -10.07 22.5 -22.5 22.5 c -9.708 0 -17.971 -6.135 -21.12 -14.75 a 23 23 0 0 0 44.875 -7 a 23 23 0 0 0 -16 -21.875 z" style="opacity:0.2"/>
 </g>
 <g>
  <path d="m 24 1 c 12.703 0 23 10.297 23 23 c 0 12.703 -10.297 23 -23 23 -12.703 0 -23 -10.297 -23 -23 0 -12.703 10.297 -23 23 -23 z" style="fill:url(#linearGradient3764);fill-opacity:1"/>
 </g>
 <g>
  <g>
   <g transform="translate(1,1)">
    <g style="opacity:0.1">
     <!-- color: #0a6161 -->
    </g>
   </g>
  </g>
 </g>
 <g>
  <g>
   <!-- color: #0a6161 -->
   <g>
    <path d="m 13 14 0 17 9 6 0 -17.5 -9 -5.5 z m 2 0 8 5 4 0 8 -5 c -4 0 -6 0.52 -10 4 -4 -3.395 -6 -4 -10 -4 z m 22 0 -9 5.5 0 5.844 a 5.5 5.5 0 0 1 4.5 -2.344 5.5 5.5 0 0 1 4.5 2.35 l 0 -11.35 m -14 6 0 18 4 0 0 -9.5 0 -8.5 -4 0 z m 9.5 4 a 4.5 4.5 0 0 0 -4.5 4.5 4.5 4.5 0 0 0 4.5 4.5 4.5 4.5 0 0 0 2.805 -0.988 l 1.791 1.791 -0.211 0.213 2.475 2.475 1.131 -1.131 -2.475 -2.477 -0.213 0.213 -1.787 -1.787 a 4.5 4.5 0 0 0 0.984 -2.809 4.5 4.5 0 0 0 -4.5 -4.5 m 0 1 a 3.5 3.5 0 0 1 3.5 3.5 3.5 3.5 0 0 1 -3.5 3.5 3.5 3.5 0 0 1 -3.5 -3.5 3.5 3.5 0 0 1 3.5 -3.5 m -4.5 6.65 0 5.352 4.5 -3 a 5.5 5.5 0 0 1 -4.5 -2.35" style="fill:#000;opacity:0.1;fill-opacity:1;stroke:none;fill-rule:nonzero"/>
   </g>
  </g>
 </g>
 <g>
  <path d="m 40.03 7.531 c 3.712 4.084 5.969 9.514 5.969 15.469 0 12.703 -10.297 23 -23 23 c -5.954 0 -11.384 -2.256 -15.469 -5.969 4.178 4.291 10.01 6.969 16.469 6.969 c 12.703 0 23 -10.298 23 -23 0 -6.462 -2.677 -12.291 -6.969 -16.469 z" style="opacity:0.1"/>
 </g>
 <g transform="matrix(0.70710678,-0.70710678,0.70710678,0.70710678,-10.219303,30.550861)">
  <g>
   <path transform="matrix(0.70710678,0.70710678,-0.70710678,0.70710678,28.828859,-14.376583)" d="m 12 13 l 0 17 l 9 6 l 0 -17.5 l -9 -5.5 z m 2 0 l 8 5 l 4 0 l 8 -5 c -4 0 -6 0.52 -10 4 c -4 -3.395 -6 -4 -10 -4 z m 22 0 l -9 5.5 l 0 5.844 a 5.5 5.5 0 0 1 4.5 -2.344 a 5.5 5.5 0 0 1 4.5 2.35 l 0 -11.35 z m -14 6 l 0 18 l 4 0 l 0 -9.5 l 0 -8.5 l -4 0 z m 5 11.65 l 0 5.352 l 4.5 -3 a 5.5 5.5 0 0 1 -4.5 -2.35 z" style="fill:#f9f9f9;fill-opacity:1;stroke:none;fill-rule:nonzero"/>
   <path transform="matrix(0.70710678,0.70710678,-0.70710678,0.70710678,28.828859,-14.376583)" d="M 31.5 23 A 4.5 4.5 0 0 0 27 27.5 A 4.5 4.5 0 0 0 31.5 32 A 4.5 4.5 0 0 0 36 27.5 A 4.5 4.5 0 0 0 31.5 23 z M 31.5 24 A 3.5 3.5 0 0 1 35 27.5 A 3.5 3.5 0 0 1 31.5 31 A 3.5 3.5 0 0 1 28 27.5 A 3.5 3.5 0 0 1 31.5 24 z" style="fill:#f9f9f9;opacity:1;fill-opacity:1;stroke:none"/>
   <rect y="31.22" x="31.16" height="3.625" width="1" style="fill:#f9f9f9;opacity:1;fill-opacity:1;stroke:none"/>
   <rect y="34.34" x="30.858" height="3.5" width="1.6" style="fill:#f9f9f9;opacity:1;fill-opacity:1;stroke:none"/>
  </g>
 </g>
</svg>

<svg xmlns="http://www.w3.org/2000/svg" viewBox="0 0 48 48">
  <defs>
    <linearGradient id="a" x1="1" x2="47" gradientUnits="userSpaceOnUse" gradientTransform="rotate(-90 24 24)">
      <stop stop-color="#084d4e"/>
      <stop offset="1" stop-color="#0a6161"/>
    </linearGradient>
  </defs>
  <path d="M36.31 5c5.859 4.062 9.688 10.831 9.688 18.5 0 12.426-10.07 22.5-22.5 22.5-7.669 0-14.438-3.828-18.5-9.688a23.24 23.24 0 0 0 3.781 4.969 22.923 22.923 0 0 0 15.469 5.969c12.703 0 23-10.298 23-23a22.92 22.92 0 0 0-5.969-15.469A23.216 23.216 0 0 0 36.31 5zm4.969 3.781A22.911 22.911 0 0 1 47.498 24.5c0 12.703-10.297 23-23 23a22.909 22.909 0 0 1-15.719-6.219C12.939 45.425 18.662 48 24.998 48c12.703 0 23-10.298 23-23 0-6.335-2.575-12.06-6.719-16.219z" opacity=".05"/>
  <path d="M41.28 8.781a22.923 22.923 0 0 1 5.969 15.469c0 12.703-10.297 23-23 23A22.92 22.92 0 0 1 8.78 41.281 22.911 22.911 0 0 0 24.499 47.5c12.703 0 23-10.298 23-23A22.909 22.909 0 0 0 41.28 8.781z" opacity=".1"/>
  <path d="M31.25 2.375C39.865 5.529 46 13.792 46 23.505c0 12.426-10.07 22.5-22.5 22.5-9.708 0-17.971-6.135-21.12-14.75a23 23 0 0 0 44.875-7 23 23 0 0 0-16-21.875z" opacity=".2"/>
  <path d="M24 1c12.703 0 23 10.297 23 23S36.703 47 24 47 1 36.703 1 24 11.297 1 24 1z" fill="url(#a)"/>
  <path d="M13 14v17l9 6V19.5L13 14zm2 0l8 5h4l8-5c-4 0-6 .52-10 4-4-3.395-6-4-10-4zm22 0l-9 5.5v5.844A5.5 5.5 0 0 1 32.5 23a5.5 5.5 0 0 1 4.5 2.35V14m-14 6v18h4V20h-4zm9.5 4a4.5 4.5 0 0 0-4.5 4.5 4.5 4.5 0 0 0 4.5 4.5 4.5 4.5 0 0 0 2.805-.988l1.791 1.791-.211.213 2.475 2.475 1.131-1.131-2.475-2.477-.213.213-1.787-1.787A4.5 4.5 0 0 0 37 28.5a4.5 4.5 0 0 0-4.5-4.5m0 1a3.5 3.5 0 0 1 3.5 3.5 3.5 3.5 0 0 1-3.5 3.5 3.5 3.5 0 0 1-3.5-3.5 3.5 3.5 0 0 1 3.5-3.5M28 31.65v5.352l4.5-3a5.5 5.5 0 0 1-4.5-2.35" opacity=".1"/>
  <g>
    <path d="M40.03 7.531A22.922 22.922 0 0 1 45.999 23c0 12.703-10.297 23-23 23A22.92 22.92 0 0 1 7.53 40.031C11.708 44.322 17.54 47 23.999 47c12.703 0 23-10.298 23-23 0-6.462-2.677-12.291-6.969-16.469z" opacity=".1"/>
  </g>
  <g>
    <g fill="#f9f9f9">
      <path d="M12 13v17l9 6V18.5L12 13zm2 0l8 5h4l8-5c-4 0-6 .52-10 4-4-3.395-6-4-10-4zm22 0l-9 5.5v5.844A5.5 5.5 0 0 1 31.5 22a5.5 5.5 0 0 1 4.5 2.35V13zm-14 6v18h4V19h-4zm5 11.65v5.352l4.5-3a5.5 5.5 0 0 1-4.5-2.35z"/>
      <path d="M31.5 23a4.5 4.5 0 0 0-4.5 4.5 4.5 4.5 0 0 0 4.5 4.5 4.5 4.5 0 0 0 4.5-4.5 4.5 4.5 0 0 0-4.5-4.5zm0 1a3.5 3.5 0 0 1 3.5 3.5 3.5 3.5 0 0 1-3.5 3.5 3.5 3.5 0 0 1-3.5-3.5 3.5 3.5 0 0 1 3.5-3.5z"/>
      <path d="M33.89 30.593l.707-.707 2.563 2.563-.707.708z"/>
      <path d="M35.883 33.013l1.131-1.131 2.475 2.475-1.131 1.13z"/>
    </g>
  </g>
</svg>
